site/assets/img/categoria-front-end.svg

<?xml version="1.0" encoding="UTF-8" standalone="no"?>
<svg width="28px" height="29px" viewBox="0 0 28 29" version="1.1" xmlns="http://www.w3.org/2000/svg" xmlns:xlink="http://www.w3.org/1999/xlink" xmlns:sketch="http://www.bohemiancoding.com/sketch/ns">
    <!-- Generator: sketchtool 3.4.4 (395) - http://www.bohemiancoding.com/sketch -->
    <title>front-end</title>
    <desc>Created with sketchtool.</desc>
    <defs></defs>
    <g id="Page-1" stroke="none" stroke-width="1" fill="none" fill-rule="evenodd" sketch:type="MSPage">
        <g id="Desktop-HD" sketch:type="MSArtboardGroup" transform="translate(-548.000000, -500.000000)" fill="#FFFFFF">
            <g id="Page-1" sketch:type="MSLayerGroup" transform="translate(548.000000, 500.000000)">
                <path d="M13.4814815,2.72839506 C14.2348395,2.72839506 14.845679,2.11755556 14.845679,1.36419753 C14.845679,0.610839506 14.2348395,0 13.4814815,0 L1.60493827,0 C1.20771605,0 0.77117284,0.0905185185 0.521765432,0.361271605 C0.251012346,0.610679012 0,0.886728395 0,1.28395062 L0,13.1604938 C0,13.9138519 0.610839506,14.5246914 1.36419753,14.5246914 C2.11755556,14.5246914 2.72839506,13.9138519 2.72839506,13.1604938 L2.72839506,2.72839506 L13.4814815,2.72839506 Z M26.6358025,13.4753086 C25.8824444,13.4753086 25.2716049,14.0861481 25.2716049,14.8395062 L25.2716049,25.5925926 L14.8395062,25.5925926 C14.0861481,25.5925926 13.4753086,26.2034321 13.4753086,26.9567901 C13.4753086,27.7101481 14.0861481,28.3209877 14.8395062,28.3209877 L26.7160494,28.3209877 C27.1132716,28.3209877 27.389321,28.0699753 27.6387284,27.7992222 C27.9094815,27.5498148 28,27.1132716 28,26.7160494 L28,14.8395062 C28,14.0861481 27.3891605,13.4753086 26.6358025,13.4753086 Z M12.7160494,19.7777778 C12.7160494,20.4425432 13.2549877,20.9814815 13.9197531,20.9814815 C14.5845185,20.9814815 15.1234568,20.4425432 15.1234568,19.7777778 L15.1234568,16.4274691 L18.2461852,18.1840741 C18.4357284,18.2935309 18.6827284,18.3455309 18.887037,18.3455309 C19.303037,18.3455309 19.7277037,18.1295062 19.9506296,17.7435185 C20.2830123,17.1676667 20.095716,16.4314815 19.5200247,16.0992593 L16.5382099,14.3747531 L19.5275679,12.6502469 C20.1032593,12.3178642 20.3017901,11.581679 19.9694074,11.0059877 C19.6370247,10.4301358 18.8210741,10.2332099 18.2455432,10.5654321 L15.1234568,12.322037 L15.1234568,8.86419753 C15.1234568,8.1994321 14.5845185,7.66049383 13.9197531,7.66049383 C13.2549877,7.66049383 12.7160494,8.1994321 12.7160494,8.86419753 L12.7160494,12.2578395 L9.86503704,10.5654321 C9.28934568,10.2328889 8.59344444,10.4302963 8.26090123,11.0059877 C7.92851852,11.581679 8.14582716,12.3178642 8.72151852,12.6502469 L11.7184198,14.3747531 L8.73660494,16.0992593 C8.16091358,16.4314815 7.96607407,17.1676667 8.29861728,17.7435185 C8.52154321,18.1296667 8.9274321,18.3455309 9.3432716,18.3455309 C9.54758025,18.3455309 9.67485185,18.2935309 9.86439506,18.1840741 L12.7160494,16.4916667 L12.7160494,19.7777778 Z" id="front-end" sketch:type="MSShapeGroup"></path>
            </g>
        </g>
    </g>
</svg>

<svg width="28" height="29" xmlns="http://www.w3.org/2000/svg"><path d="M13.481 2.728a1.364 1.364 0 000-2.728H1.605C1.208 0 .77.09.522.361.25.611 0 .887 0 1.284V13.16a1.364 1.364 0 002.728 0V2.728h10.753zm13.155 10.747c-.754 0-1.364.611-1.364 1.365v10.753H14.84a1.364 1.364 0 000 2.728h11.876c.397 0 .673-.251.923-.522.27-.25.361-.686.361-1.083V14.84c0-.754-.61-1.365-1.364-1.365zm-13.92 6.303a1.204 1.204 0 002.407 0v-3.35l3.123 1.756c.19.11.437.162.641.162.416 0 .84-.216 1.064-.602a1.2 1.2 0 00-.431-1.645l-2.982-1.724 2.99-1.725a1.204 1.204 0 00.441-1.644c-.332-.576-1.148-.773-1.723-.44l-3.123 1.756V8.864a1.204 1.204 0 00-2.407 0v3.394l-2.851-1.693c-.576-.332-1.272-.135-1.604.441-.332.576-.115 1.312.46 1.644l2.997 1.725-2.981 1.724a1.205 1.205 0 00.607 2.246c.204 0 .33-.051.52-.16l2.852-1.693v3.286z" fill="#FFF" fill-rule="evenodd"/></svg>
